X:1
T:Litany for Those at Sea (Part 1), 77.77.6
T:Charles Edward Stephens (1821-1891)
T:Litany for Those at Sea (Part 1), 77.77.6
T:Public Domain
C:Charles Edward Stephens (1821-1891)
Z:Public Domain
%%score ( 1 2 ) ( 3 4 )
L:1/8
M:4/4
K:G
V:1 treble 
V:2 treble 
V:3 bass 
V:4 bass 
V:1
 [B,E]3 [B,E] [CE]2 [B,G]2 | [^CG]2 [^DF]2 E4 | [Fc]3 [Fc] [GB]2 [Ee]2 | B2 [FA]2 [EG]4 | %4
 [Ec]3 [Ec] [=Fc]2 [Ee]2 | [=Fe]2 [Fd]2 [Ec]4 | [=FA]3 [FB] [Ec]2 [Ac]2 | [Ac]2 [^GB]2 A4 | %8
 [Ec]3 [Ec] [EB]2 E2 | (E2 ^D2) E4 |] %10
V:2
 x8 | x4 E4 | x8 | B2 x6 | x8 | x8 | x8 | x4 A4 | x6 E2 | F4 E4 |] %10
V:3
 [E,G,]3 [E,G,] [E,A,]2 [E,G,]2 | [A,,A,]2 [B,,A,]2 [C,G,]4 | [D,D]3 [D,D] [G,D]2 ([G,B,][A,C]) | %3
 B,2 (^C^D) [E,E]4 | [C,G,]3 [C,G,] [C,A,]2 [C,G,]2 | [=F,A,]2 [G,B,]2 [A,C]4 | %6
 [D,D]3 [D,D] [A,,E]2 [=F,C]2 | [E,E]2 [E,D]2 [A,C]4 | [A,,A,]3 [A,,F,] [B,,G,]2 [C,G,]2 | %9
 (B,3 A,) [E,G,]4 |] %10
V:4
 x8 | x8 | x8 | B,2 B,,2 x4 | x8 | x8 | x8 | x8 | x8 | B,,4 x4 |] %10

